X: 32746
T: Pols Efter Marta Johannes
R: waltz
M: 3/4
K: Gminor
A-|A=B/^c/ d2 d>=c|A<B G2 G/^F/D|D<^F G>A c<A|B2 A3A-|
A=B/^c/ d2 d>=c|A<B G2 G/^F/D|D<^F G>A c<A|B<A G3:|
|:=e|f2 f/=e/f/e/ d>d|d<^c d3A|B2 (3BAB c>A|B2 A3=e|
f2 f/=e/f/e/ d>d|d<^c d3A|B2 (3GAB d/^c/B/A/|G<^F G4:|

